X:525
T:Garden of Skye, The
C:Joe Buchanan's Scottish Tome - Page 026.0
I:026 0
C:Addie Harper
R:Reel
Z:Carl Allison
L:1/8
M:4/4
K:Amaj
(c3B) | "A" A4 "D" (A3B) | "A" (c(e e2)) (e3c) | "B7" B2 A2 "E7" (c3B) | "A" A4 c2e2 |
"D" f4 "D"(f3e) | "D" (f(a a2)) (g2f2) | "A" (f2e2) "E7" (e3f) | "A" e4 (c2e2) |
"A" a4 (a3g) | "A" f4 (a3g) | "A" f2e2 "E7" c2B2 | "A" c4 "E7" (c3B) |
"A" A4 "D"(A3B) | "D" (c(e e2)) (e3c) | "B7" B2A2 "E7" (c3B) | "A" A4 "E7" e3f |
"A" c4 (c2e2) | "D" f4 (f2a2) | "A" e4 (e3f) | "E7" e2c2 B2d2 |
"A" e4 (e2a2) | "A" f4 (f2a2) | "A" e3f "B7" e2c2 | "E7" B4 (ce) |
"D" (f(a a2)) (a3 g) | "D" f4 (a3g) | "A" f2e2 "E7" c2B2 | "F#m" c2 f2 e2f2 |
"A" A4 (A3B) | "A" (c(e e2)) (e3c) | "B7" (B2A2) "E7" (c3B) | "A" A4 :|
